src/icons/apostrophecms.svg

<?xml version="1.0" encoding="UTF-8"?>
<svg width="256px" height="256px" viewBox="0 0 256 256" version="1.1" xmlns="http://www.w3.org/2000/svg" xmlns:xlink="http://www.w3.org/1999/xlink">
    <!-- Generator: Sketch 41.2 (35397) - http://www.bohemiancoding.com/sketch -->
    <title>256</title>
    <desc>Created with Sketch.</desc>
    <defs></defs>
    <g id="Page-1" stroke="none" stroke-width="1" fill="none" fill-rule="evenodd">
        <g id="256" fill="#00BF9A">
            <path d="M140.193354,69.1040859 C137.79248,68.5490638 135.323592,69.7160334 134.239024,71.9292095 L111.690359,117.752486 C110.888845,119.393156 110.986998,121.33919 111.950199,122.885933 C112.911363,124.432675 114.627204,125.380482 116.448528,125.380482 L138.994343,125.380482 C140.391289,125.380482 141.757689,124.814889 142.742068,123.833333 C143.727261,122.844865 144.297851,121.47947 144.297851,120.093338 L144.297851,74.2598958 C144.297851,71.797468 142.598708,69.6611411 140.193354,69.1040859 Z M181.388195,15.2998758 L181.388195,120.093338 C181.388195,121.47947 181.949825,122.844865 182.938276,123.833333 C183.924284,124.814889 185.291499,125.380482 186.68478,125.380482 L252.460579,125.380482 C251.553174,76.7841283 222.763866,34.9976718 181.388195,15.2998758 Z M247.585929,162.416112 L186.68478,162.416112 C185.291499,162.416112 183.924284,162.973167 182.938276,163.959196 C181.949825,164.943598 181.388195,166.314685 181.388195,167.704477 L181.388195,240.186706 C213.233273,225.0283 237.623626,196.78113 247.585929,162.416112 Z M138.994343,162.416112 L93.0262624,162.416112 C90.9968215,162.416112 89.1600206,163.55096 88.2644274,165.364439 L56.5073214,229.91778 C76.7113165,243.991759 101.277612,252.25 127.780897,252.25 C133.382122,252.25 138.895375,251.876326 144.297851,251.162726 L144.297851,167.704477 C144.297851,166.314685 143.727261,164.943598 142.742068,163.959196 C141.757689,162.973167 140.391289,162.416112 138.994343,162.416112 Z M39.8893643,162.416112 L7.97464365,162.416112 C12.2827766,177.277694 19.2911291,190.991009 28.4307407,203.001037 L44.6503848,170.035976 C45.449047,168.39612 45.3537451,166.451713 44.3897301,164.90619 C43.4273442,163.360666 41.713947,162.416112 39.8893643,162.416112 Z M3.09958678,125.380482 L63.3148882,125.380482 C65.3418856,125.380482 67.1778719,124.23669 68.0710214,122.420365 L126.699588,3.25 C59.1118317,3.8253526 4.35724556,58.0682945 3.09958678,125.380482 Z" id="Logo"></path>
        </g>
    </g>
</svg>

<svg width="256" height="256" viewBox="0 0 256 256" xmlns="http://www.w3.org/2000/svg"><title>256</title><path d="M140.193 69.104a5.298 5.298 0 0 0-5.954 2.825l-22.549 45.823a5.315 5.315 0 0 0 .26 5.134 5.315 5.315 0 0 0 4.499 2.494h22.545a5.346 5.346 0 0 0 3.748-1.547 5.347 5.347 0 0 0 1.556-3.74V74.26c0-2.463-1.7-4.599-4.105-5.156zM181.388 15.3v104.793a5.33 5.33 0 0 0 1.55 3.74 5.353 5.353 0 0 0 3.747 1.547h65.776c-.908-48.596-29.697-90.382-71.073-110.08zm66.198 147.116h-60.901a5.33 5.33 0 0 0-3.747 1.543 5.327 5.327 0 0 0-1.55 3.745v72.483c31.845-15.159 56.236-43.406 66.198-77.77zm-108.592 0H93.026a5.29 5.29 0 0 0-4.762 2.948l-31.757 64.554c20.204 14.074 44.77 22.332 71.274 22.332 5.601 0 11.114-.374 16.517-1.087v-83.459c0-1.39-.57-2.76-1.556-3.745a5.323 5.323 0 0 0-3.748-1.543zm-99.105 0H7.975c4.308 14.862 11.316 28.575 20.456 40.585l16.22-32.965a5.313 5.313 0 0 0-.261-5.13 5.314 5.314 0 0 0-4.5-2.49zM3.1 125.38h60.216a5.287 5.287 0 0 0 4.756-2.96L126.7 3.25C59.112 3.825 4.357 58.068 3.1 125.38z" fill="#00BF9A" fill-rule="evenodd"/></svg>
